www/assets/icons/hdr_on.svg

<svg xmlns="http://www.w3.org/2000/svg" width="24" height="24" viewBox="0 0 24 24" fill='currentColor'><path d="M21 11.5v-1c0-.8-.7-1.5-1.5-1.5H16v6h1.5v-2h1.1l.9 2H21l-.9-2.1c.5-.3.9-.8.9-1.4m-1.5 0h-2v-1h2zm-13-.5h-2V9H3v6h1.5v-2.5h2V15H8V9H6.5zM13 9H9.5v6H13c.8 0 1.5-.7 1.5-1.5v-3c0-.8-.7-1.5-1.5-1.5m0 4.5h-2v-3h2z"/></svg>

<svg width="24" height="24" viewBox="0 0 24 24" xmlns="http://www.w3.org/2000/svg" fill='currentColor'><path d="M21 11.5V10.5C21 9.7 20.3 9 19.5 9H16V15H17.5V13H18.6L19.5 15H21L20.1 12.9C20.6 12.6 21 12.1 21 11.5ZM19.5 11.5H17.5V10.5H19.5V11.5ZM6.5 11H4.5V9H3V15H4.5V12.5H6.5V15H8V9H6.5V11ZM13 9H9.5V15H13C13.8 15 14.5 14.3 14.5 13.5V10.5C14.5 9.7 13.8 9 13 9ZM13 13.5H11V10.5H13V13.5Z"/></svg>
